packages/foundations/assets/icons/functional/images/technology/light_bulb_32.svg

<svg width="32" height="32" viewBox="0 0 32 32" fill="none" xmlns="http://www.w3.org/2000/svg">
<g clip-path="url(#clip0_187_589)">
<path fill-rule="evenodd" clip-rule="evenodd" d="M19.9995 26H17.5185C17.5115 26 17.5065 25.996 17.4995 25.996C17.4925 25.996 17.4865 26 17.4805 26H14.5195C14.5125 26 14.5075 25.996 14.5005 25.996C14.4935 25.996 14.4875 26 14.4815 26H12.0005C11.4485 26 11.0005 26.447 11.0005 27C11.0005 27.553 11.4485 28 12.0005 28H13.5005V29C13.5005 29.553 13.9485 30 14.5005 30H17.5005C18.0525 30 18.5005 29.553 18.5005 29V28H20.0005C20.5525 28 21.0005 27.553 21.0005 27C21.0005 26.447 20.5515 26 19.9995 26ZM19.9995 23H11.9995C11.4475 23 10.9995 23.447 10.9995 24C10.9995 24.553 11.4475 25 11.9995 25H19.9995C20.5515 25 20.9995 24.553 20.9995 24C20.9995 23.447 20.5515 23 19.9995 23ZM16.0005 2C21.4045 2 25.8005 6.397 25.8005 11.8C25.8005 15.448 24.1605 17.261 22.8435 18.719C22.0735 19.571 21.4645 20.244 21.3915 21.086C21.3475 21.604 20.9145 22 20.3945 22L16.0295 21.994C16.0195 21.995 16.0105 22 16.0005 22L15.9715 21.994L11.6025 21.988C11.0855 21.987 10.6535 21.593 10.6075 21.078C10.5315 20.24 9.92552 19.57 9.15652 18.719C7.83952 17.262 6.19952 15.448 6.19952 11.8C6.19952 6.396 10.5955 2 16.0005 2ZM15.9995 3.999C11.6985 3.999 8.19952 7.498 8.19952 11.799C8.19952 14.677 9.43952 16.05 10.6395 17.377C11.3435 18.155 12.0655 18.954 12.4095 19.988L14.9995 19.992V17.324L13.7375 15.587C13.4125 15.14 13.5115 14.515 13.9585 14.19C14.4065 13.867 15.0315 13.966 15.3555 14.412L15.9995 15.298L16.6425 14.412C16.9655 13.965 17.5915 13.865 18.0385 14.19C18.4865 14.515 18.5855 15.14 18.2605 15.587L16.9995 17.324V19.995L19.5855 19.999C19.9285 18.96 20.6525 18.158 21.3595 17.376C22.5585 16.049 23.7995 14.677 23.7995 11.799C23.7995 7.498 20.3005 3.999 15.9995 3.999ZM13.1745 5.946C13.6715 5.705 14.2695 5.912 14.5105 6.409C14.7515 6.906 14.5445 7.505 14.0475 7.745C13.0285 8.24 12.2365 9.088 11.8185 10.136C11.6625 10.527 11.2865 10.765 10.8895 10.765C10.7655 10.765 10.6405 10.743 10.5185 10.694C10.0055 10.489 9.75552 9.907 9.96052 9.394C10.5645 7.883 11.7055 6.659 13.1735 5.947L13.1745 5.946Z" fill="#1A1C1F"/>
</g>
<defs>
<clipPath id="clip0_187_589">
<rect width="32" height="32" fill="white"/>
</clipPath>
</defs>
</svg>

<svg xmlns="http://www.w3.org/2000/svg" width="32" height="32" fill="none"><g clip-path="url(#a)"><path fill="#1A1C1F" fill-rule="evenodd" d="M20 26h-2.482q-.009-.002-.018-.004-.011.002-.02.004h-2.96q-.01-.002-.02-.004-.01.002-.018.004H12a1 1 0 1 0 0 2h1.5v1a1 1 0 0 0 1 1h3a1 1 0 0 0 1-1v-1H20a1 1 0 1 0-.002-2m0-3h-8a1 1 0 1 0 0 2h8a1 1 0 1 0 0-2M16 2c5.404 0 9.8 4.397 9.8 9.8 0 3.648-1.64 5.461-2.957 6.919-.77.852-1.378 1.525-1.451 2.367a1 1 0 0 1-.997.914l-4.366-.006c-.01.001-.018.006-.029.006l-.028-.006-4.37-.006a1 1 0 0 1-.995-.91c-.075-.838-.681-1.508-1.45-2.359C7.84 17.262 6.2 15.448 6.2 11.8 6.2 6.396 10.595 2 16 2m0 1.999c-4.302 0-7.8 3.499-7.8 7.8 0 2.878 1.24 4.251 2.44 5.578.704.778 1.425 1.577 1.77 2.611l2.59.004v-2.668l-1.262-1.737a1 1 0 1 1 1.617-1.175l.644.886.643-.886a.999.999 0 1 1 1.618 1.175L17 17.324v2.671l2.585.004c.343-1.039 1.067-1.841 1.774-2.623 1.2-1.327 2.44-2.699 2.44-5.577 0-4.301-3.498-7.8-7.8-7.8m-2.825 1.947a1 1 0 1 1 .872 1.799 4.51 4.51 0 0 0-2.229 2.391 1 1 0 0 1-1.857-.742 6.5 6.5 0 0 1 3.213-3.447z" clip-rule="evenodd"/></g><defs><clipPath id="a"><path fill="#fff" d="M0 0h32v32H0z"/></clipPath></defs></svg>
